brandFactory_export/2.Regular/factura digital_2Regular.svg

<?xml version="1.0" encoding="UTF-8"?>
<svg width="24px" height="24px" viewBox="0 0 24 24" version="1.1" xmlns="http://www.w3.org/2000/svg" xmlns:xlink="http://www.w3.org/1999/xlink">
    <title>2.Regular/factura digital_2Regular</title>
    <g id="Symbols" stroke="none" stroke-width="1" fill="none" fill-rule="evenodd">
        <g id="2.Regular/factura-digital_2Regular" fill="#5CB615" fill-rule="nonzero">
            <path d="M22.9176471,18.7445378 C23.287395,18.7445378 23.589916,19.0470588 23.589916,19.4168067 C23.589916,19.7865546 23.287395,20.0890756 22.9176471,20.0890756 L0.712605042,20.0890756 C0.342857143,20.0890756 0.0403361342,19.7865546 0.0403361342,19.4168067 C0.0403361342,19.0470588 0.342857143,18.7445378 0.712605042,18.7445378 L22.9176471,18.7445378 Z M19.6806723,3.01008403 C20.9983193,3.01008403 22.010084,3.40336134 22.6857143,4.17647059 C23.3142857,4.89579832 23.6302521,5.93781513 23.6302521,7.27563025 L23.6302521,13.2016807 C23.6302521,14.5394958 23.3109244,15.5815126 22.6857143,16.3008403 C22.010084,17.0739496 20.9983193,17.4672269 19.6806723,17.4672269 L3.94957983,17.4672269 C2.63193277,17.4672269 1.62016807,17.0739496 0.944537815,16.3042017 C0.319327731,15.5815126 -2.40639508e-10,14.5394958 -2.40639508e-10,13.2016807 L-2.40639508e-10,7.27563025 C-2.40639508e-10,5.93781513 0.319327731,4.89579832 0.944537815,4.17647059 C1.62016807,3.40336134 2.62857143,3.01008403 3.94957983,3.01008403 L19.6806723,3.01008403 Z M19.6806723,4.35462185 L3.94957983,4.35798319 C3.02184874,4.35798319 2.37310924,4.58991597 1.95966387,5.06386555 C1.55294118,5.52773109 1.34453781,6.27394958 1.34453781,7.27563025 L1.34453781,13.2016807 C1.34453781,14.2033613 1.55294118,14.9495798 1.95966387,15.4168067 C2.37310924,15.8907563 3.02521008,16.1226891 3.94957983,16.1226891 L19.6806723,16.1226891 C20.605042,16.1226891 21.2571429,15.8907563 21.6705882,15.4168067 C22.0773109,14.9495798 22.2857143,14.2033613 22.2857143,13.2016807 L22.2857143,7.27563025 C22.2857143,6.27394958 22.0773109,5.52773109 21.6705882,5.0605042 C21.2571429,4.58655462 20.605042,4.35462185 19.6806723,4.35462185 Z M12.497479,5.46722689 C12.6319328,5.46722689 12.7596639,5.5210084 12.8537815,5.61512605 L15.1226891,7.88739496 C15.2168067,7.98151261 15.2705882,8.1092437 15.2705882,8.24369748 L15.2705882,14.2302521 C15.2705882,14.6806723 14.9546218,14.9966387 14.5042017,14.9966387 L9.13613445,14.9966387 C8.67226891,14.9966387 8.35966387,14.6840336 8.35966387,14.2168067 L8.35966387,6.24033613 C8.35966387,5.77647059 8.67226891,5.46722689 9.13613445,5.46722689 L12.497479,5.46722689 Z M12.05,6.47508403 L9.36806723,6.47563025 L9.36806723,13.9882353 L14.2621849,13.9882353 L14.262,8.69008403 L13.2537815,8.6907563 C12.5109244,8.6907563 12.0504202,8.15294118 12.0504202,7.28571429 L12.05,6.47508403 Z M13.4084034,12.1764706 C13.5932773,12.1764706 13.7445378,12.3277311 13.7445378,12.512605 C13.7445378,12.697479 13.589916,12.8487395 13.405042,12.8487395 L10.2285714,12.8487395 C10.0436975,12.8487395 9.89243697,12.697479 9.89243697,12.512605 C9.89243697,12.3277311 10.0436975,12.1764706 10.2285714,12.1764706 L13.4084034,12.1764706 Z M13.4084034,10.8151261 C13.5932773,10.8151261 13.7445378,10.9663866 13.7445378,11.1512605 C13.7445378,11.3361345 13.589916,11.487395 13.405042,11.487395 L10.2285714,11.487395 C10.0436975,11.487395 9.89243697,11.3361345 9.89243697,11.1512605 C9.89243697,10.9663866 10.0436975,10.8151261 10.2285714,10.8151261 L13.4084034,10.8151261 Z M13.4084034,9.45042017 C13.5932773,9.45042017 13.7445378,9.60168067 13.7445378,9.78655462 C13.7445378,9.97142857 13.589916,10.1226891 13.405042,10.1226891 L10.2285714,10.1226891 C10.0436975,10.1226891 9.89243697,9.97142857 9.89243697,9.78655462 C9.89243697,9.60168067 10.0436975,9.45042017 10.2285714,9.45042017 L13.4084034,9.45042017 Z M12.722,6.91208403 L12.7226891,7.28571429 C12.7226891,7.7697479 12.9008403,8.01848739 13.2537815,8.01848739 L13.828,8.01808403 L12.722,6.91208403 Z" id="factura-digital_2Regular"></path>
        </g>
    </g>
</svg>

<svg width="24" height="24" viewBox="0 0 24 24" xmlns="http://www.w3.org/2000/svg"><path d="M22.918 18.745c.37 0 .672.302.672.672 0 .37-.303.672-.672.672H.713a.674.674 0 01-.673-.672c0-.37.303-.672.673-.672h22.205zM19.68 3.01c1.317 0 2.33.393 3.005 1.166.628.72.944 1.762.944 3.1v5.926c0 1.337-.32 2.38-.944 3.099-.676.773-1.688 1.166-3.005 1.166H3.95c-1.318 0-2.33-.393-3.005-1.163C.319 15.582 0 14.54 0 13.202V7.276c0-1.338.32-2.38.945-3.1C1.62 3.403 2.629 3.01 3.95 3.01h15.73zm0 1.345L3.95 4.358c-.928 0-1.577.232-1.99.706-.407.464-.615 1.21-.615 2.212v5.926c0 1.001.208 1.748.615 2.215.413.474 1.065.706 1.99.706h15.73c.925 0 1.577-.232 1.99-.706.407-.467.616-1.214.616-2.215V7.276c0-1.002-.209-1.748-.615-2.215-.414-.474-1.066-.706-1.99-.706zm-7.184 1.112c.135 0 .263.054.357.148l2.269 2.272a.504.504 0 01.148.357v5.986c0 .45-.316.767-.767.767H9.136c-.464 0-.776-.313-.776-.78V6.24c0-.464.312-.773.776-.773h3.361zm-.447 1.008H9.368v7.513h4.894V8.69h-1.008c-.743 0-1.204-.537-1.204-1.404v-.81zm1.358 5.701c.185 0 .337.152.337.337a.34.34 0 01-.34.336h-3.176a.337.337 0 01-.337-.336c0-.185.152-.337.337-.337h3.18zm0-1.36c.185 0 .337.15.337.335a.34.34 0 01-.34.336h-3.176a.337.337 0 01-.337-.336c0-.185.152-.336.337-.336h3.18zm0-1.366c.185 0 .337.152.337.337a.34.34 0 01-.34.336h-3.176a.337.337 0 01-.337-.336c0-.185.152-.337.337-.337h3.18zm-.686-2.538v.374c0 .484.179.732.532.732h.574l-1.106-1.106z" fill="#5CB615" fill-rule="nonzero"/></svg>
